.icons/Gruvbox-Plus-Dark/apps/16/xneur.svg

<svg width="16" height="16" version="1.1" xmlns="http://www.w3.org/2000/svg">
  <defs>
    <style type="text/css" id="current-color-scheme">.ColorScheme-Text { color:#ebdbb2; } .ColorScheme-Highlight { color:#458588; }</style>
  </defs>
  <path class="ColorScheme-Text" fill="currentColor" d="m10.7 2-2.351 2.842c-1.294 1.562-2.353 2.873-2.353 2.911s1.107 1.459 2.459 3.158l2.458 3.089h2.575c2.05 0 2.562-0.018 2.506-0.092-0.139-0.184-4.688-5.912-4.79-6.032-0.096-0.112 0.11-0.386 2.168-2.871 1.251-1.511 2.32-2.806 2.375-2.876 0.094-0.122-0.036-0.129-2.473-0.129h-2.574zm-10.04 0s4.35 5.748 4.262 5.728c0.01 0.028-0.997 1.326-2.238 2.885s-2.355 2.959-2.474 3.11l-0.216 0.277h5.158l1.207-1.513c0.837-1.049 1.186-1.539 1.139-1.601-0.037-0.048-0.611-0.775-1.277-1.614l-1.211-1.523 1.267-1.529c0.698-0.841 1.262-1.534 1.254-1.542l-6.871-2.678z"/>
</svg>

<svg xmlns="http://www.w3.org/2000/svg" style="isolation:isolate" width="16" height="16" viewBox="0 0 16 16">
 <defs>
  <style id="current-color-scheme" type="text/css">
   .ColorScheme-Text { color:#ebdbb2; } .ColorScheme-Highlight { color:#458588; }
  </style>
  <linearGradient id="arrongin" x1="0%" x2="0%" y1="0%" y2="100%">
   <stop offset="0%" style="stop-color:#d79921; stop-opacity:1"/>
   <stop offset="100%" style="stop-color:#b57614; stop-opacity:1"/>
  </linearGradient>
  <linearGradient id="aurora" x1="0%" x2="0%" y1="0%" y2="100%">
   <stop offset="0%" style="stop-color:#83a598; stop-opacity:1"/>
   <stop offset="100%" style="stop-color:#b16286; stop-opacity:1"/>
  </linearGradient>
  <linearGradient id="fitdance" x1="0%" x2="0%" y1="0%" y2="100%">
   <stop offset="0%" style="stop-color:#8ec07c; stop-opacity:1"/>
   <stop offset="100%" style="stop-color:#458588; stop-opacity:1"/>
  </linearGradient>
  <linearGradient id="oomox" x1="0%" x2="0%" y1="0%" y2="100%">
   <stop offset="0%" style="stop-color:#458588; stop-opacity:1"/>
   <stop offset="100%" style="stop-color:#928374; stop-opacity:1"/>
  </linearGradient>
  <linearGradient id="rainblue" x1="0%" x2="0%" y1="0%" y2="100%">
   <stop offset="0%" style="stop-color:#b8bb26; stop-opacity:1"/>
   <stop offset="100%" style="stop-color:#076678; stop-opacity:1"/>
  </linearGradient>
  <linearGradient id="sunrise" x1="0%" x2="0%" y1="0%" y2="100%">
   <stop offset="0%" style="stop-color: #fe8019; stop-opacity:1"/>
   <stop offset="100%" style="stop-color: #fabd2f; stop-opacity:1"/>
  </linearGradient>
  <linearGradient id="telinkrin" x1="0%" x2="0%" y1="0%" y2="100%">
   <stop offset="0%" style="stop-color: #83a598; stop-opacity:1"/>
   <stop offset="100%" style="stop-color: #83a598; stop-opacity:1"/>
  </linearGradient>
  <linearGradient id="60spsycho" x1="0%" x2="0%" y1="0%" y2="100%">
   <stop offset="0%" style="stop-color: #fb4934; stop-opacity:1"/>
   <stop offset="25%" style="stop-color: #fabd2f; stop-opacity:1"/>
   <stop offset="50%" style="stop-color: #fe8019; stop-opacity:1"/>
   <stop offset="100%" style="stop-color: #689d6a; stop-opacity:1"/>
  </linearGradient>
  <linearGradient id="90ssummer" x1="0%" x2="0%" y1="0%" y2="100%">
   <stop offset="0%" style="stop-color: #b16286; stop-opacity:1"/>
   <stop offset="20%" style="stop-color: #8ec07c; stop-opacity:1"/>
   <stop offset="50%" style="stop-color: #fabd2f; stop-opacity:1"/>
   <stop offset="100%" style="stop-color: #458588; stop-opacity:1"/>
  </linearGradient>
  <linearGradient id="cyberneon" x1="0%" x2="0%" y1="0%" y2="100%">
    <stop offset="0" style="stop-color:#83a598; stop-opacity:1"/>
    <stop offset="1" style="stop-color:#b16286; stop-opacity:1"/>
  </linearGradient>
 </defs>
 <path style="fill:currentColor" class="ColorScheme-Text" fill-rule="evenodd" d="M 10.702 2 L 8.351 4.842 C 7.057 6.404 5.998 7.715 5.998 7.753 C 5.998 7.791 7.105 9.212 8.457 10.911 L 10.915 14 L 13.49 14 C 15.54 14 16.052 13.982 15.996 13.908 C 15.857 13.724 11.308 7.996 11.206 7.876 C 11.11 7.764 11.316 7.49 13.374 5.005 C 14.625 3.494 15.694 2.199 15.749 2.129 C 15.843 2.007 15.713 2 13.276 2 L 10.702 2 Z M 0.666 2 C 0.666 2 5.016 7.748 4.928 7.728 C 4.938 7.756 3.931 9.054 2.69 10.613 C 1.449 12.172 0.335 13.572 0.216 13.723 L 0 14 L 5.158 14 L 6.365 12.487 C 7.202 11.438 7.551 10.948 7.504 10.886 C 7.467 10.838 6.893 10.111 6.227 9.272 L 5.016 7.749 L 6.283 6.22 C 6.981 5.379 7.545 4.686 7.537 4.678 L 0.666 2 Z"/>
</svg>
